build/img/icon-truck.svg

<svg width="56" height="31" viewBox="0 0 56 31" fill="none" xmlns="http://www.w3.org/2000/svg">
<g opacity="0.9">
<path d="M56 16.6539L53.6655 11.8888L48.9983 2.38283L37.3329 2.39333V1.19096C37.3329 0.787864 37.1329 0.411683 36.8014 0.192654C36.4699 -0.0272683 36.0528 -0.061222 35.6922 0.102743L25.418 4.76501H1.16688C0.79861 4.76501 0.450794 4.94305 0.231167 5.24573C0.0106646 5.54764 -0.0568205 5.93767 0.049165 6.29899L3.47144 17.948L2.34946 24.8482C2.29302 25.1938 2.38872 25.5463 2.6101 25.8133C2.83224 26.0804 3.15698 26.234 3.50053 26.234H4.78384C5.32394 28.953 7.67793 31 10.4995 31C12.4085 31 14.102 30.0629 15.1667 28.6179C16.2306 30.063 17.9241 31 19.8331 31C22.6546 31 25.0087 28.953 25.5488 26.234H34.9985H37.4491C37.9909 28.953 40.3442 31 43.1657 31C45.9872 31 48.3421 28.953 48.8822 26.234H55.9762L56 16.6539ZM51.056 11.8888H41.9831V4.77115L47.5577 4.7668L51.056 11.8888ZM39.6503 4.77372V11.8888H37.3415L37.3449 4.77551L39.6503 4.77372ZM2.73479 7.14808H25.6657C25.8289 7.14808 25.9903 7.11323 26.1399 7.0451L34.9982 3.02417V16.6783H5.53493L2.73479 7.14808ZM10.4995 28.6161C8.57012 28.6161 7.00035 27.014 7.00035 25.0438C7.00035 23.0717 8.57012 21.4697 10.4995 21.4697C12.4298 21.4697 13.9995 23.0717 13.9995 25.0438C13.9995 27.014 12.4298 28.6161 10.4995 28.6161ZM19.8331 28.6161C17.9029 28.6161 16.3331 27.014 16.3331 25.0438C16.3331 23.0717 17.9027 21.4697 19.8331 21.4697C21.7625 21.4697 23.3331 23.0717 23.3331 25.0438C23.3331 27.014 21.7625 28.6161 19.8331 28.6161ZM25.5487 23.8517C25.0086 21.1328 22.6546 19.0857 19.833 19.0857C17.9241 19.0857 16.2305 20.0229 15.1666 21.4696C14.1019 20.0229 12.4083 19.0857 10.4994 19.0857C7.9727 19.0857 5.82117 20.7279 5.01102 23.0227L5.65535 19.0612H34.9982V23.8517H25.5487ZM43.1656 28.6161C41.2362 28.6161 39.6657 27.014 39.6657 25.0438C39.6657 23.0717 41.2362 21.4697 43.1656 21.4697C45.095 21.4697 46.6655 23.0717 46.6655 25.0438C46.6655 27.014 45.095 28.6161 43.1656 28.6161ZM53.6484 23.8517H48.8821C48.342 21.1328 45.987 19.0857 43.1656 19.0857C40.3441 19.0857 37.9891 21.1328 37.449 23.8517H37.3345L37.3397 14.2708H52.2249L53.6655 17.2131L53.6484 23.8517Z" fill="white"/>
<path d="M43.1652 23.852C42.5209 23.852 41.998 24.3844 41.998 25.044C41.998 25.7002 42.5209 26.2342 43.1652 26.2342C43.8095 26.2342 44.3325 25.7002 44.3325 25.044C44.3325 24.3844 43.8095 23.852 43.1652 23.852Z" fill="white"/>
<path d="M10.4994 23.852C9.85506 23.852 9.33301 24.3844 9.33301 25.044C9.33301 25.7002 9.85506 26.2342 10.4994 26.2342C11.1437 26.2342 11.6667 25.7002 11.6667 25.044C11.6667 24.3844 11.1437 23.852 10.4994 23.852Z" fill="white"/>
<path d="M19.833 23.852C19.1887 23.852 18.6658 24.3844 18.6658 25.044C18.6658 25.7002 19.1887 26.2342 19.833 26.2342C20.4774 26.2342 20.9994 25.7002 20.9994 25.044C20.9993 24.3844 20.4773 23.852 19.833 23.852Z" fill="white"/>
<path d="M9.33289 13.1051H30.3328C30.9771 13.1051 31.4999 12.572 31.4999 11.914C31.4999 11.256 30.9771 10.7229 30.3328 10.7229H9.33289C8.68856 10.7229 8.1665 11.256 8.1665 11.914C8.1665 12.572 8.68867 13.1051 9.33289 13.1051Z" fill="white"/>
</g>
</svg>

<svg width="56" height="31" fill="none" xmlns="http://www.w3.org/2000/svg"><g opacity=".9" fill="#fff"><path d="M56 16.654l-2.334-4.765-4.668-9.506-11.665.01V1.191c0-.403-.2-.78-.532-.998a1.144 1.144 0 00-1.109-.09L25.418 4.765H1.167a1.16 1.16 0 00-.936.48A1.21 1.21 0 00.05 6.3l3.422 11.649-1.122 6.9c-.056.346.04.698.261.965.222.267.547.421.89.421h1.284C5.324 28.953 7.678 31 10.499 31c1.91 0 3.603-.937 4.668-2.382C16.23 30.063 17.924 31 19.833 31c2.822 0 5.176-2.047 5.716-4.766h11.9C37.991 28.953 40.344 31 43.166 31c2.821 0 5.176-2.047 5.716-4.766h7.094l.024-9.58zm-4.944-4.765h-9.073V4.77l5.575-.004 3.498 7.122zM39.65 4.774v7.115h-2.308l.003-7.113 2.305-.002zM2.735 7.148h22.93c.164 0 .325-.035.475-.103l8.858-4.02v13.653H5.535l-2.8-9.53zm7.764 21.468C8.57 28.616 7 27.014 7 25.044c0-1.972 1.57-3.574 3.5-3.574s3.5 1.602 3.5 3.574c0 1.97-1.57 3.572-3.5 3.572zm9.334 0c-1.93 0-3.5-1.602-3.5-3.572 0-1.972 1.57-3.574 3.5-3.574s3.5 1.602 3.5 3.574c0 1.97-1.57 3.572-3.5 3.572zm5.716-4.764c-.54-2.72-2.894-4.766-5.716-4.766-1.909 0-3.602.937-4.666 2.384-1.065-1.447-2.759-2.384-4.668-2.384-2.526 0-4.678 1.642-5.488 3.937l.644-3.962h29.343v4.79h-9.45zm17.617 4.764c-1.93 0-3.5-1.602-3.5-3.572 0-1.972 1.57-3.574 3.5-3.574 1.929 0 3.5 1.602 3.5 3.574 0 1.97-1.571 3.572-3.5 3.572zm10.482-4.764h-4.766c-.54-2.72-2.895-4.766-5.716-4.766-2.822 0-5.177 2.047-5.717 4.766h-.114l.005-9.581h14.885l1.44 2.942-.017 6.639z"/><path d="M43.165 23.852a1.18 1.18 0 00-1.167 1.192c0 .656.523 1.19 1.167 1.19a1.18 1.18 0 001.168-1.19 1.18 1.18 0 00-1.168-1.192zm-32.665 0c-.645 0-1.167.532-1.167 1.192 0 .656.522 1.19 1.166 1.19a1.18 1.18 0 001.168-1.19 1.18 1.18 0 00-1.168-1.192zm9.333 0a1.18 1.18 0 00-1.167 1.192c0 .656.523 1.19 1.167 1.19a1.18 1.18 0 001.166-1.19c0-.66-.522-1.192-1.166-1.192zm-10.5-10.747h21a1.18 1.18 0 001.167-1.191 1.18 1.18 0 00-1.167-1.191h-21c-.644 0-1.167.533-1.167 1.191s.523 1.191 1.167 1.191z"/></g></svg>
